X: 1
T: MacPhail's Magic
T: 8x32R 3C (RSCDS Book 46)
P: MacPhail's Magic
C: Colin Dewar
C: from John Chambers
B: RSCDS 46-8
R: reel
Z: 2011 John Chambers <jc:trillian.mit.edu>
M: C|
L: 1/8
K: F
|: C/D/E |"F"F2F2 ^GAFD | "F"CDFG "Dm"A2GF | "Gm"G2GA BABc | "Gm"dcBA "C7"GFEC |"F"F2FG "C7"^GAFD | "F"CDFG "F#dim"AcBA | 
"Gm"d/c/B AF "C7"GFED | "F"C2F2 F2 :|"F7"F_E |"Bb"D2F2 "Gm"defd | "Am"e2c2 "F#dim"_e2dc | "Gm"d2B2 "C7"d2cB | "F"AB=Bc "F7"dcAF |
 "Bb"D2F2 "Gm"defd | "Am"e2c2 "F#dim"_e2dc | "Gm"d/c/B AF "C7"GFED | "F"C2F2 F2 ||"F7"F_E |"Bb"D2F2 "Gm"defd | 
"Am"e2c2 "F#dim"_e2dc | "Gm"d2B2 "C7"d2cB | "F"AfcA "C7"dBGE | "F"F2FG ^GAFD | "F"CDFG "D7"AcBA | "Gm"d/c/B AF "C7"GFED | "F"C2F2 F2 |]

